X:1
T:Willie Coleman's
C:Trad. arr. LN
L:1/8
M:6/8
K:G
R: jig
B2 G AGE | GED GA/B/d | edB dgb |{b} age dBA | 
B2 G AGE | GED GA/B/d | edB dBA |1 {d} AGF GF/G/A :|2 {d} AGF G3 ||
|: g2 g{g} edB | dgb{b} age | g2{a} g edB | GBd e2 f | 
g2 g{g} edB | dgb{b} age |{g} dBd gdB |{d} AGF G3 :| 